cssgg/smart-home-light.svg

<svg
  width="24"
  height="24"
  viewBox="0 0 24 24"
  fill="none"
  xmlns="http://www.w3.org/2000/svg"
>
  <path
    fill-rule="evenodd"
    clip-rule="evenodd"
    d="M7.03435 6.5C7.03435 3.73858 9.27293 1.5 12.0344 1.5C14.7958 1.5 17.0344 3.73858 17.0344 6.5V10.5C17.0344 13.2614 14.7958 15.5 12.0344 15.5C9.27293 15.5 7.03435 13.2614 7.03435 10.5V6.5ZM15.0344 6.5V10.5C15.0344 12.1569 13.6912 13.5 12.0344 13.5C10.3775 13.5 9.03435 12.1569 9.03435 10.5V6.5C9.03435 4.84315 10.3775 3.5 12.0344 3.5C13.6912 3.5 15.0344 4.84315 15.0344 6.5Z"
    fill="currentColor"
  />
  <path
    d="M12.0344 16.5C11.4821 16.5 11.0344 16.9477 11.0344 17.5V21.5C11.0344 22.0523 11.4821 22.5 12.0344 22.5C12.5866 22.5 13.0344 22.0523 13.0344 21.5V17.5C13.0344 16.9477 12.5866 16.5 12.0344 16.5Z"
    fill="currentColor"
  />
  <path
    d="M7.74433 16.4397C7.93323 15.9207 8.50707 15.6531 9.02605 15.842C9.54502 16.0309 9.81261 16.6048 9.62372 17.1237L8.25564 20.8825C8.06675 21.4015 7.4929 21.6691 6.97393 21.4802C6.45495 21.2913 6.18736 20.7174 6.37625 20.1985L7.74433 16.4397Z"
    fill="currentColor"
  />
  <path
    d="M14.974 15.8421C14.4551 16.031 14.1875 16.6048 14.3764 17.1238L15.7445 20.8825C15.9333 21.4015 16.5072 21.6691 17.0262 21.4802C17.5451 21.2913 17.8127 20.7175 17.6238 20.1985L16.2558 16.4397C16.0669 15.9208 15.493 15.6532 14.974 15.8421Z"
    fill="currentColor"
  />
</svg>

<svg viewBox="0 0 24 24" xmlns="http://www.w3.org/2000/svg"><path fill-rule="evenodd" d="M7.03 6.5c0-2.77 2.23-5 5-5 2.76 0 5 2.23 5 5v4c0 2.76-2.24 5-5 5 -2.77 0-5.01-2.24-5.01-5v-4Zm8 0v4c0 1.65-1.35 3-3 3 -1.66 0-3.01-1.35-3.01-3v-4c0-1.66 1.34-3 3-3 1.65 0 3 1.34 3 3Z"/><g><path d="M12.03 16.5c-.56 0-1 .44-1 1v4c0 .55.44 1 1 1 .55 0 1-.45 1-1v-4c0-.56-.45-1-1-1Z"/><path d="M7.74 16.43c.18-.52.76-.79 1.28-.6 .51.18.78.76.59 1.28l-1.37 3.75c-.19.51-.77.78-1.29.59 -.52-.19-.79-.77-.6-1.29l1.36-3.76Z"/><path d="M14.97 15.84c-.52.18-.79.76-.6 1.28l1.36 3.75c.18.51.76.78 1.28.59 .51-.19.78-.77.59-1.29l-1.37-3.76c-.19-.52-.77-.79-1.29-.6Z"/></g></svg>
